16x16/actions/view-financial-account-asset-closed.svg

<svg viewBox="0 0 16 16" xmlns="http://www.w3.org/2000/svg"><path d="m5.121 3 1 1h5.07l1.5 3h-3.57l1 1h2.879v2.879l1 1v-4.499l-2.191-4.38h-6.689zm-2.033 2.209-1.088 2.174v4.617h1v2h2v-2h4.879l-1-1h-5.879v-3h2.879l-1-1h-1.57l.523-1.047zm.912 3.791v1h1v-1zm7.121 0 .879.879v-.879zm-.121 4.121v.879h.879z" fill="#555e70"/><path d="m2.707 2-.707.707 11.293 11.293.707-.732z" fill="#da4453"/></svg>

<svg viewBox="0 0 16 16" xmlns="http://www.w3.org/2000/svg">
    <path d="m5.121 3 1 1h5.07l1.5 3h-3.57l1 1H13v2.879l1 1V7.38L11.809 3H5.12zM3.088 5.209 2 7.383V12h1v2h2v-2h4.879l-1-1H3V8h2.879l-1-1h-1.57l.523-1.047zM4 9v1h1V9zm7.121 0 .879.879V9zM11 13.121V14h.879z" fill="#555e70"/>
    <path d="M2.707 2 2 2.707 13.293 14l.707-.732z" fill="#da4453"/>
</svg>
